X:145
T:While O'er Our Guilty Land, O Lord
%%stretchlast false
M:4/4
L:1/4
K:Eb clef=C1
"^I"[E,B,EG]2 [E,B,EG] [E,B,EG] | "^IV²"[E,CEA]2 "^I"[E,B,EG] [E,G,EB] | "^V¹"[D,B,FB]2 "^♯iii°"[B,,B,DA]2 | "^I"[E,B,EG]4 | "^V7"[B,,F,DA]2 "^V7¹"[D,B,FA] "^V7"[B,,F,DA] | "^I"[E,B,G]3 [E,B,G] | "^♭v°¹"[C,E,C=A]2 "^ii7²"[C,F,EA]2 | "^V"[B,,F,DB]4 | "^I"[E,G,EB]2 "^V¹"[D,B,FB] "^♯iii°"[B,,B,DA] | "^I"[E,B,EG]2 [E,,G,B,E]2 | "^V"[B,,F,B,D] "^I²"[B,,G,B,E] "^V7"[B,,A,DF] "^I²"[B,,G,EG] | "^V7"[B,,F,DA]4 | "^I"[E,B,G]2 "^IV"[A,,A,Ec] "^IV¹"[C,A,Ec] | "^I"[E,G,EB]2 [E,,B,EG]2 | "^I²"[B,,G,E]2 "^V7"[B,,A,DF]2 | "^I"[E,,G,E]4 |]
